X:2
T:Alabama Jubilee
M:4/4
L:1/4
K:C
cB_B||"A7"AGE(A|A)G2E |AGE(A|A4)|"D7"A^FD(A |A)^F2D|A^FD(A|A3)^A|
"G7"B^ABG|AB2G|AGA(B|B)GAB|"C"cBc(A|A)GE(3G//A//B//|cBc(A|"C"A)G2"E7"E||
"A7"A2GE|AG2E|AGE(A|A4)|"Dm"D2DE|"A7"FEFG|"Dm"A2^G(A|"Ebdim"A)Bcd|
"C"e4|"E7"e3d|"F"c2A2|"C"G2^FG|"D7"A^GA^A|"G7"B2G2|
"C"c2B2|"A7"A3^G|"D7"A^GA^A|"G7"B2G2|"C"(c4|c)|]
